build/images/fb-icons/ranking-scale.svg

<svg xmlns="http://www.w3.org/2000/svg" preserveAspectRatio="xMidYMid" width="15" height="14" viewBox="0 0 15 14"><defs><style>.cls-1{fill:#606060;fill-rule:evenodd}</style></defs><path d="M14.141 5.574a.251.251 0 0 0-.203-.168l-3.658-.453L7.391.707a.252.252 0 0 0-.324-.118.231.231 0 0 0-.124.118L4.08 4.953l-3.684.453a.25.25 0 0 0-.202.168.243.243 0 0 0 .063.253L3.53 8.979l-.775 4.452a.25.25 0 0 0 .364.26l4.047-2.102 4.046 2.102a.25.25 0 0 0 .263-.019.24.24 0 0 0 .1-.241L10.8 8.979l3.278-3.149a.248.248 0 0 0 .063-.256z" class="cls-1"/></svg>

<svg xmlns="http://www.w3.org/2000/svg" xmlns:xlink="http://www.w3.org/1999/xlink" preserveAspectRatio="xMidYMid" width="15" height="14" viewBox="0 0 15 14">
  <defs>
    <style>
      .cls-1 {
        fill: #606060;
        fill-rule: evenodd;
      }
    </style>
  </defs>
  <path d="M14.141,5.574 C14.113,5.487 14.035,5.421 13.938,5.406 L10.280,4.953 L7.391,0.707 C7.336,0.590 7.190,0.537 7.067,0.589 C7.011,0.612 6.967,0.654 6.943,0.707 L4.080,4.953 L0.396,5.406 C0.300,5.421 0.221,5.487 0.194,5.574 C0.163,5.663 0.189,5.760 0.257,5.827 L3.530,8.979 L2.755,13.431 C2.740,13.523 2.777,13.615 2.855,13.672 C2.931,13.728 3.035,13.736 3.119,13.691 L7.166,11.589 L11.212,13.691 C11.297,13.735 11.400,13.728 11.475,13.672 C11.555,13.615 11.592,13.523 11.575,13.431 L10.800,8.979 L14.078,5.830 C14.147,5.762 14.171,5.664 14.141,5.574 Z" class="cls-1"/>
</svg>
